icons/earth-east.svg

<svg width="24" height="24" viewBox="0 0 24 24" fill="none" xmlns="http://www.w3.org/2000/svg">
<path d="M12 21C16.9706 21 21 16.9706 21 12C21 7.02944 16.9706 3 12 3C7.02944 3 3 7.02944 3 12C3 16.9706 7.02944 21 12 21Z" stroke="#1E293B" stroke-width="2" stroke-miterlimit="10"/>
<path d="M4.64874 17.1932L5.71511 16.5495C5.82936 16.4805 5.91997 16.3785 5.97492 16.2569C6.02988 16.1352 6.04659 15.9998 6.02286 15.8685L5.41724 12.518C5.39064 12.3709 5.4149 12.2191 5.48603 12.0876L6.48778 10.2353C6.52931 10.1585 6.5857 10.0907 6.65366 10.0359L8.18706 8.79928C8.28875 8.71727 8.41254 8.66735 8.54269 8.65588C8.67283 8.64441 8.80344 8.67191 8.91791 8.73487L9.59235 9.10581C9.73167 9.18244 9.83857 9.30688 9.89331 9.45617L10.0221 9.80745C10.0654 9.92538 10.1414 10.0285 10.2413 10.1046C10.3413 10.1807 10.4609 10.2267 10.586 10.2371C10.7112 10.2475 10.8368 10.2218 10.9479 10.1632C11.0589 10.1046 11.151 10.0154 11.213 9.90623L11.6557 9.12761C11.7 9.04971 11.7597 8.98168 11.8312 8.92766C11.9027 8.87364 11.9844 8.83477 12.0715 8.81344C12.1585 8.79211 12.2489 8.78876 12.3373 8.80359C12.4257 8.81843 12.5101 8.85113 12.5854 8.89972L13.9367 9.77172C14.0484 9.84376 14.1792 9.88035 14.312 9.87668C14.4448 9.87301 14.5734 9.82926 14.6809 9.75117C14.7884 9.67308 14.8698 9.5643 14.9143 9.43912C14.9589 9.31394 14.9645 9.17822 14.9305 9.04977V9.04977C14.8912 8.9014 14.905 8.74396 14.9695 8.60467C15.0339 8.46537 15.145 8.35295 15.2835 8.28684L17.1459 7.398C17.2766 7.33561 17.3831 7.23186 17.4489 7.10282C17.5147 6.97378 17.5362 6.82665 17.5099 6.6842L17.1261 4.60229" stroke="#1E293B" stroke-width="2" stroke-linecap="round" stroke-linejoin="round"/>
<path d="M17.9465 18.755L16.5807 17.3865C16.5195 17.3252 16.4469 17.2766 16.3669 17.2434C16.2869 17.2102 16.2011 17.1932 16.1145 17.1932H15.0425C14.9479 17.1932 14.8544 17.1728 14.7684 17.1334C14.6823 17.094 14.6058 17.0366 14.544 16.965C14.4822 16.8934 14.4365 16.8093 14.4101 16.7185C14.3836 16.6276 14.3771 16.5322 14.3909 16.4386L14.6141 14.9228C14.6292 14.8198 14.6686 14.7219 14.7289 14.6371C14.7892 14.5522 14.8687 14.4829 14.961 14.4348L17.1982 13.2676C17.3167 13.2057 17.4512 13.1814 17.5839 13.1979C17.7166 13.2143 17.8411 13.2708 17.9409 13.3597L20.3072 15.4678" stroke="#1E293B" stroke-width="2" stroke-linecap="round" stroke-linejoin="round"/>
</svg>

<svg
  width="24"
  height="24"
  viewBox="0 0 24 24"
  xmlns="http://www.w3.org/2000/svg"
  fill="none"
  stroke="currentColor"
  stroke-width="2"
  stroke-linecap="round"
  stroke-linejoin="round"
>
  <path d="M12 21a9 9 0 1 0 0-18 9 9 0 0 0 0 18z" />
  <path d="M4.649 17.193l1.066-.644a.659.659 0 0 0 .308-.68l-.606-3.351a.658.658 0 0 1 .069-.43l1.002-1.853a.659.659 0 0 1 .166-.2L8.187 8.8a.659.659 0 0 1 .73-.064l.675.37c.14.077.247.202.301.351l.13.351a.659.659 0 0 0 1.19.1l.443-.78a.659.659 0 0 1 .93-.227l1.35.872a.659.659 0 0 0 .995-.722.658.658 0 0 1 .353-.763l1.862-.889a.659.659 0 0 0 .364-.714l-.384-2.082" />
  <path d="M17.947 18.755l-1.366-1.368a.659.659 0 0 0-.466-.194h-1.072a.658.658 0 0 1-.652-.754l.223-1.516a.658.658 0 0 1 .347-.488l2.237-1.167a.658.658 0 0 1 .743.092l2.366 2.108" />
</svg>
